symbols/web/no_backpack/materialsymbolssharp/no_backpack_wght100fill1_48px.svg

<svg xmlns="http://www.w3.org/2000/svg" height="48" width="48"><path d="m32.3 27.05 5.1 5.1v-16.3q0-2.8-1.825-4.6-1.825-1.8-4.175-2V5.3h-3.1v4h-8.6v-4h-3.1v3.95q-.55.05-1 .2-.45.15-.7.2l15.8 15.8h1.6Zm7.75 14.55-5.5-5.45h1.65l1.2 1.25v4.3H10.6V15.85q0-1.1.35-2.1t.95-1.85l.65.65v1.6L6.4 7.95l.8-.75 33.65 33.6ZM15.7 26.55h9.25l-1.1-1.1H15.7Z"/></svg>

<svg xmlns="http://www.w3.org/2000/svg" height="48" width="48"><path d="M32.3 27.05 37.4 32.15V15.85Q37.4 13.05 35.575 11.25Q33.75 9.45 31.4 9.25V5.3H28.3V9.3H19.7V5.3H16.6V9.25Q16.05 9.3 15.6 9.45Q15.15 9.6 14.9 9.65L30.7 25.45H32.3ZM40.05 41.6 37.8 39.4V41.7H10.6V15.85Q10.6 15.3 10.775 14.35Q10.95 13.4 11.25 12.85L6.4 7.95L7.2 7.2L40.85 40.8ZM15.7 26.55H24.95L23.85 25.45H15.7Z"/></svg>
